X:485
T:Galway Rambler, The
R:reel
D:Terry Bingham
Z:id:hn-reel-485
M:C|
K:G
G2dG eGdG|~G2dB AGEF|1G2dG eGdG| gedB AGEF:|2GFGA BABd| gedB AGBd||
 ~g3b agab|gabg agef|~g3b agab|gedB AGBd|
~g3b agab|gabg ageg|bgag egfa|gedB AGEF||
